X:953
T:Reel 953
M:4/4
K:Dmaj
L:1/8
A2|d2fd AFED|d2fd egfe|d2fd AFDF|GEFD EDCE|d2fd AFED|d2fd egfe| (3fga ge dBAF|GBAG FDD|g|fdAd fdad|fdAd ceeg|fdAd fdad|dBAG FDDg|fdAd fdad|fdAd ceeg|fagf edcd| (3Bcd AG FDDG|
